img/svg/contacts/skko.svg

<svg width="29" height="28" viewBox="0 0 29 28" fill="none" xmlns="http://www.w3.org/2000/svg">
<path d="M22.7956 5.73501V9.41893M18.6848 8.96049V5.73501M16.4936 5.73501H24.9662C25.1697 5.73501 25.3347 5.57 25.3347 5.36645V1.5249C25.3347 1.32134 25.1697 1.15633 24.9662 1.15633L16.4936 1.15625C16.29 1.15625 16.125 1.32126 16.125 1.52482V5.36645C16.125 5.57 16.29 5.73501 16.4936 5.73501Z" stroke="#FBFBFB" stroke-width="1.5" stroke-miterlimit="10" stroke-linecap="round" stroke-linejoin="round"/>
<path d="M24.7985 20.6871V10.8266C24.7985 10.0486 24.1679 9.41797 23.3898 9.41797H12.5902H7.89475H6.01657C5.23855 9.41797 4.60789 10.0486 4.60789 10.8266V20.6872M24.8042 25.3827H4.60214C3.82735 25.3827 3.19922 24.7545 3.19922 23.9797V22.0901C3.19922 21.3153 3.82735 20.6872 4.60214 20.6872H24.8042C25.579 20.6872 26.2071 21.3153 26.2071 22.0901V23.9797C26.2071 24.7545 25.579 25.3827 24.8042 25.3827Z" stroke="#FBFBFB" stroke-width="1.5" stroke-miterlimit="10" stroke-linecap="round" stroke-linejoin="round"/>
<path d="M7.26908 14.2725C7.71756 14.2725 8.08112 13.909 8.08112 13.4605C8.08112 13.012 7.71756 12.6484 7.26908 12.6484C6.8206 12.6484 6.45703 13.012 6.45703 13.4605C6.45703 13.909 6.8206 14.2725 7.26908 14.2725Z" fill="#FBFBFB" stroke="#FBFBFB" stroke-width="0.1" stroke-linecap="round" stroke-linejoin="round"/>
<path d="M10.5347 14.2725C10.9832 14.2725 11.3467 13.909 11.3467 13.4605C11.3467 13.012 10.9832 12.6484 10.5347 12.6484C10.0862 12.6484 9.72266 13.012 9.72266 13.4605C9.72266 13.909 10.0862 14.2725 10.5347 14.2725Z" fill="#FBFBFB" stroke="#FBFBFB" stroke-width="0.1" stroke-linecap="round" stroke-linejoin="round"/>
<path d="M13.8003 14.2725C14.2488 14.2725 14.6124 13.909 14.6124 13.4605C14.6124 13.012 14.2488 12.6484 13.8003 12.6484C13.3518 12.6484 12.9883 13.012 12.9883 13.4605C12.9883 13.909 13.3518 14.2725 13.8003 14.2725Z" fill="#FBFBFB" stroke="#FBFBFB" stroke-width="0.1" stroke-linecap="round" stroke-linejoin="round"/>
<path d="M13.8003 18.1085C14.2488 18.1085 14.6124 17.7449 14.6124 17.2964C14.6124 16.8479 14.2488 16.4844 13.8003 16.4844C13.3518 16.4844 12.9883 16.8479 12.9883 17.2964C12.9883 17.7449 13.3518 18.1085 13.8003 18.1085Z" fill="#FBFBFB" stroke="#FBFBFB" stroke-width="0.1" stroke-linecap="round" stroke-linejoin="round"/>
<path d="M10.5347 18.1085C10.9832 18.1085 11.3467 17.7449 11.3467 17.2964C11.3467 16.8479 10.9832 16.4844 10.5347 16.4844C10.0862 16.4844 9.72266 16.8479 9.72266 17.2964C9.72266 17.7449 10.0862 18.1085 10.5347 18.1085Z" fill="#FBFBFB" stroke="#FBFBFB" stroke-width="0.1" stroke-linecap="round" stroke-linejoin="round"/>
<path d="M7.26908 18.1085C7.71756 18.1085 8.08112 17.7449 8.08112 17.2964C8.08112 16.8479 7.71756 16.4844 7.26908 16.4844C6.8206 16.4844 6.45703 16.8479 6.45703 17.2964C6.45703 17.7449 6.8206 18.1085 7.26908 18.1085Z" fill="#FBFBFB" stroke="#FBFBFB" stroke-width="0.1" stroke-linecap="round" stroke-linejoin="round"/>
<path d="M6.45703 9.4197V4.60938L8.01792 5.42983L9.57894 4.60938L11.1401 5.42983L12.7013 4.60938V9.4197" stroke="#FBFBFB" stroke-width="1.3" stroke-miterlimit="10" stroke-linecap="round" stroke-linejoin="round"/>
</svg>

<svg width="29" height="28" fill="none" xmlns="http://www.w3.org/2000/svg"><path d="M22.796 5.735v3.684m-4.111-.459V5.735m-2.191 0h8.472a.369.369 0 00.369-.369V1.525a.369.369 0 00-.369-.369h-8.472a.369.369 0 00-.369.369v3.841c0 .204.165.369.369.369zm8.305 14.952v-9.86a1.41 1.41 0 00-1.41-1.409H6.018c-.778 0-1.41.63-1.41 1.409v9.86m20.197 4.696H4.602A1.403 1.403 0 013.2 23.98v-1.89c0-.775.628-1.403 1.403-1.403h20.202c.775 0 1.403.628 1.403 1.403v1.89c0 .774-.628 1.403-1.403 1.403z" stroke="#FBFBFB" stroke-width="1.5" stroke-miterlimit="10" stroke-linecap="round" stroke-linejoin="round"/><path d="M7.27 14.273a.812.812 0 100-1.624.812.812 0 000 1.624zm3.265 0a.812.812 0 100-1.624.812.812 0 000 1.624zm3.265 0a.812.812 0 100-1.625.812.812 0 000 1.625zm0 3.835a.812.812 0 100-1.624.812.812 0 000 1.624zm-3.265 0a.812.812 0 100-1.624.812.812 0 000 1.624zm-3.265 0a.812.812 0 10-.001-1.624.812.812 0 000 1.624z" fill="#FBFBFB" stroke="#FBFBFB" stroke-width=".1" stroke-linecap="round" stroke-linejoin="round"/><path d="M6.457 9.42V4.61l1.56.82 1.562-.82 1.561.82 1.561-.82v4.81" stroke="#FBFBFB" stroke-width="1.3" stroke-miterlimit="10" stroke-linecap="round" stroke-linejoin="round"/></svg>
